X: 17704
T: Holy Land, The
R: reel
M: 4/4
K: Dmajor
|:B3d A2Bc|dFF2 DFA=c|BGG2 ABdf|afeg fdd2:|
f2df dfaf|gfed cdeg|f2df dfaf|gfeg fdd2|
f2df dfaf|gfed cdec|dfaf g2ag|f2eg fdd2||

